svgs/sharp-solid/book-user.svg

<svg xmlns="http://www.w3.org/2000/svg" viewBox="0 0 448 512"><!--! Font Awesome Pro 6.6.0 by @fontawesome - https://fontawesome.com License - https://fontawesome.com/license (Commercial License) Copyright 2024 Fonticons, Inc. --><path d="M0 96C0 43 43 0 96 0L384 0l32 0 32 0 0 384-32 0 0 64 32 0 0 64-32 0-32 0L96 512c-53 0-96-43-96-96L0 96zM64 416c0 17.7 14.3 32 32 32l256 0 0-64L96 384c-17.7 0-32 14.3-32 32zM304 128a64 64 0 1 0 -128 0 64 64 0 1 0 128 0zm16 96l-160 0-32 96 224 0-32-96z"/></svg>

<svg xmlns="http://www.w3.org/2000/svg" viewBox="0 0 448 512"><!--! Font Awesome Pro 6.4.2 by @fontawesome - https://fontawesome.com License - https://fontawesome.com/license (Commercial License) Copyright 2023 Fonticons, Inc. --><path d="M0 96C0 43 43 0 96 0H384h32 32V384H416v64h32v64H416 384 96c-53 0-96-43-96-96V96zM64 416c0 17.7 14.3 32 32 32H352V384H96c-17.7 0-32 14.3-32 32zM304 128a64 64 0 1 0 -128 0 64 64 0 1 0 128 0zm16 96H160l-32 96H352l-32-96z"/></svg>
